; G-Code generated by Simplify3D(R) Version 4.1.2
; Jul 1, 2020 at 8:57:07 PM
; Settings Summary
;   processName,Process1
;   applyToModels,extendo_0.8mm_nozzle
;   profileName,Ultimaker 2+ | Use this one - 0.8mm - wipe enabled - Extendo
;   profileVersion,2020-06-26 11:37:30
;   baseProfile,Ultimaker 2+ (modified)
;   printMaterial,PLA
;   printQuality,Fast
;   printExtruders,
;   extruderName,Primary Extruder
;   extruderToolheadNumber,0
;   extruderDiameter,0.8
;   extruderAutoWidth,0
;   extruderWidth,0.8
;   extrusionMultiplier,1
;   extruderUseRetract,1
;   extruderRetractionDistance,4
;   extruderExtraRestartDistance,0
;   extruderRetractionZLift,0
;   extruderRetractionSpeed,1500
;   extruderUseCoasting,1
;   extruderCoastingDistance,5
;   extruderUseWipe,1
;   extruderWipeDistance,6
;   primaryExtruder,0
;   layerHeight,0.64
;   topSolidLayers,3
;   bottomSolidLayers,3
;   perimeterOutlines,2
;   printPerimetersInsideOut,1
;   startPointOption,2
;   startPointOriginX,0
;   startPointOriginY,0
;   sequentialIslands,0
;   spiralVaseMode,0
;   firstLayerHeightPercentage,100
;   firstLayerWidthPercentage,100
;   firstLayerUnderspeed,0.3
;   useRaft,0
;   raftExtruder,0
;   raftTopLayers,3
;   raftBaseLayers,2
;   raftOffset,3
;   raftSeparationDistance,0.14
;   raftTopInfill,100
;   aboveRaftSpeedMultiplier,0.3
;   useSkirt,1
;   skirtExtruder,0
;   skirtLayers,1
;   skirtOutlines,2
;   skirtOffset,4
;   usePrimePillar,0
;   primePillarExtruder,999
;   primePillarWidth,12
;   primePillarLocation,7
;   primePillarSpeedMultiplier,1
;   useOozeShield,0
;   oozeShieldExtruder,999
;   oozeShieldOffset,2
;   oozeShieldOutlines,1
;   oozeShieldSidewallShape,1
;   oozeShieldSidewallAngle,30
;   oozeShieldSpeedMultiplier,1
;   infillExtruder,0
;   internalInfillPattern,Rectilinear
;   externalInfillPattern,Rectilinear
;   infillPercentage,5
;   outlineOverlapPercentage,35
;   infillExtrusionWidthPercentage,125
;   minInfillLength,3
;   infillLayerInterval,1
;   internalInfillAngles,45,-45
;   overlapInternalInfillAngles,0
;   externalInfillAngles,45,-45
;   generateSupport,0
;   supportExtruder,0
;   supportInfillPercentage,25
;   supportExtraInflation,0
;   supportBaseLayers,0
;   denseSupportExtruder,0
;   denseSupportLayers,0
;   denseSupportInfillPercentage,70
;   supportLayerInterval,1
;   supportHorizontalPartOffset,0.3
;   supportUpperSeparationLayers,1
;   supportLowerSeparationLayers,1
;   supportType,0
;   supportGridSpacing,4
;   maxOverhangAngle,45
;   supportAngles,0
;   temperatureName,Primary Extruder,Heated Build Platform
;   temperatureNumber,0,1
;   temperatureSetpointCount,1,1
;   temperatureSetpointLayers,1,1
;   temperatureSetpointTemperatures,205,60
;   temperatureStabilizeAtStartup,1,1
;   temperatureHeatedBed,0,1
;   fanLayers,1,2
;   fanSpeeds,0,100
;   blipFanToFullPower,1
;   adjustSpeedForCooling,1
;   minSpeedLayerTime,15
;   minCoolingSpeedSlowdown,20
;   increaseFanForCooling,1
;   minFanLayerTime,10
;   maxCoolingFanSpeed,30
;   increaseFanForBridging,1
;   bridgingFanSpeed,45
;   use5D,1
;   relativeEdistances,0
;   allowEaxisZeroing,1
;   independentExtruderAxes,0
;   includeM10123,0
;   stickySupport,1
;   applyToolheadOffsets,0
;   gcodeXoffset,0
;   gcodeYoffset,0
;   gcodeZoffset,0
;   overrideMachineDefinition,1
;   machineTypeOverride,0
;   strokeXoverride,223
;   strokeYoverride,223
;   strokeZoverride,205
;   originOffsetXoverride,0
;   originOffsetYoverride,0
;   originOffsetZoverride,0
;   homeXdirOverride,-1
;   homeYdirOverride,-1
;   homeZdirOverride,-1
;   flipXoverride,1
;   flipYoverride,-1
;   flipZoverride,1
;   toolheadOffsets,0,0|0,0|0,0|0,0|0,0|0,0
;   overrideFirmwareConfiguration,1
;   firmwareTypeOverride,RepRap (Marlin/Repetier/Sprinter)
;   GPXconfigOverride,r2
;   baudRateOverride,250000
;   overridePrinterModels,1
;   printerModelsOverride
;   startingGcode,G28 ; home all axes,G1 X20 Y10 F3000 ; bring extruder to front,G92 E0 ; zero the extruded length,G1 Z10 ; lower,G1 E19 F200 ; purge nozzle quickly,G1 E26 F60 ; purge nozzle slowly,G92 E0 ; zero the extruded length again,G1 E-5.5 F400 ; retract,G1 X190 Z0 F9000 ; pull away filament,G1 X210 F9000 ; wipe,G1 Y20 F9000 ; wipe,G1 E0 ; feed filament back
;   layerChangeGcode,
;   retractionGcode,
;   toolChangeGcode,
;   endingGcode,G28 X0 ; home the X-axis,M104 S0 ; turn off heaters,M140 S0 ; turn off bed,M84 ; disable motors
;   exportFileFormat,gcode
;   celebration,0
;   celebrationSong,Random Song
;   postProcessing,
;   defaultSpeed,2500
;   outlineUnderspeed,0.65
;   solidInfillUnderspeed,0.7
;   supportUnderspeed,0.7
;   rapidXYspeed,6000
;   rapidZspeed,1000
;   minBridgingArea,5
;   bridgingExtraInflation,0
;   bridgingExtrusionMultiplier,1
;   bridgingSpeedMultiplier,0.5
;   useFixedBridgingAngle,0
;   fixedBridgingAngle,0
;   applyBridgingToPerimeters,0
;   filamentDiameters,2.85|2.85|2.85|2.85|2.85|2.85
;   filamentPricesPerKg,25|46|46|46|46|46
;   filamentDensities,1.25|1.25|1.25|1.25|1.25|1.25
;   useMinPrintHeight,0
;   minPrintHeight,0
;   useMaxPrintHeight,0
;   maxPrintHeight,0
;   useDiaphragm,0
;   diaphragmLayerInterval,20
;   robustSlicing,1
;   mergeAllIntoSolid,0
;   onlyRetractWhenCrossingOutline,1
;   retractBetweenLayers,0
;   useRetractionMinTravel,1
;   retractionMinTravel,0.02
;   retractWhileWiping,1
;   onlyWipeOutlines,1
;   avoidCrossingOutline,0
;   maxMovementDetourFactor,3
;   toolChangeRetractionDistance,12
;   toolChangeExtraRestartDistance,-0.5
;   toolChangeRetractionSpeed,600
;   externalThinWallType,1
;   internalThinWallType,1
;   thinWallAllowedOverlapPercentage,10
;   singleExtrusionMinLength,1
;   singleExtrusionMinPrintingWidthPercentage,50
;   singleExtrusionMaxPrintingWidthPercentage,200
;   singleExtrusionEndpointExtension,0.2
;   horizontalSizeCompensation,0
G90
M82
M106 S0
M140 S60
M190 S60
M104 S205 T0
M109 S205 T0
G28 ; home all axes
G1 X20 Y10 F3000 ; bring extruder to front
G92 E0 ; zero the extruded length
G1 Z10 ; lower
G1 E19 F200 ; purge nozzle quickly
G1 E26 F60 ; purge nozzle slowly
G92 E0 ; zero the extruded length again
G1 E-5.5 F400 ; retract
G1 X190 Z0 F9000 ; pull away filament
G1 X210 F9000 ; wipe
G1 Y20 F9000 ; wipe
G1 E0 ; feed filament back
; process Process1
; layer 1, Z = 0.640
T0
G92 E0.0000
G1 E-4.0000 F1500
; feature skirt
; tool H0.640 W0.800
G1 Z0.640 F1000
G1 X102.717 Y103.028 F6000
G1 E0.0000 F1500
G92 E0.0000
G1 X103.596 Y102.202 E0.0968 F750
G1 X103.848 Y101.994 E0.1230
G1 X104.790 Y101.309 E0.2166
G1 X104.995 Y101.174 E0.2362
G1 X105.585 Y100.825 E0.2912
G1 X105.802 Y100.711 E0.3109
G1 X106.856 Y100.214 E0.4044
G1 X107.160 Y100.094 E0.4306
G1 X108.268 Y99.734 E0.5242
G1 X108.505 Y99.669 E0.5438
G1 X109.133 Y99.529 E0.5955
G1 X109.294 Y99.498 E0.6086
G1 X109.930 Y99.397 E0.6603
G1 X110.174 Y99.371 E0.6800
G1 X111.296 Y99.300 E0.7703
G1 X111.543 Y99.296 E0.7901
G1 X112.230 Y99.318 E0.8453
G1 X112.474 Y99.337 E0.8649
G1 X113.626 Y99.483 E0.9581
G1 X113.947 Y99.544 E0.9843
G1 X115.076 Y99.834 E1.0779
G1 X115.310 Y99.906 E1.0975
G1 X115.955 Y100.138 E1.1525
G1 X116.181 Y100.232 E1.1722
G1 X117.198 Y100.711 E1.2624
G1 X117.415 Y100.825 E1.2821
G1 X118.005 Y101.174 E1.3371
G1 X118.210 Y101.309 E1.3568
G1 X119.119 Y101.970 E1.4470
G1 X119.310 Y102.123 E1.4667
G1 X119.824 Y102.576 E1.5216
G1 X120.000 Y102.746 E1.5413
G1 X120.798 Y103.596 E1.6349
G1 X121.006 Y103.848 E1.6611
G1 X121.691 Y104.790 E1.7546
G1 X121.826 Y104.995 E1.7743
G1 X122.175 Y105.585 E1.8293
G1 X122.289 Y105.802 E1.8489
G1 X122.768 Y106.819 E1.9392
G1 X122.862 Y107.045 E1.9588
G1 X123.080 Y107.651 E2.0105
G1 X123.131 Y107.807 E2.0237
G1 X123.310 Y108.425 E2.0754
G1 X123.367 Y108.664 E2.0950
G1 X123.586 Y109.808 E2.1886
G1 X123.627 Y110.133 E2.2148
G1 X123.700 Y111.296 E2.3083
G1 X123.704 Y111.541 E2.3280
G1 X123.684 Y112.185 E2.3797
G1 X123.673 Y112.348 E2.3928
G1 X123.613 Y112.989 E2.4445
G1 X123.578 Y113.232 E2.4642
G1 X123.367 Y114.336 E2.5544
G1 X123.310 Y114.575 E2.5741
G1 X123.119 Y115.232 E2.6291
G1 X123.040 Y115.464 E2.6487
G1 X122.611 Y116.548 E2.7423
G1 X122.472 Y116.843 E2.7685
G1 X121.910 Y117.865 E2.8621
G1 X121.781 Y118.075 E2.8818
G1 X121.394 Y118.644 E2.9371
G1 X121.248 Y118.839 E2.9567
G1 X120.533 Y119.703 E3.0466
G1 X120.368 Y119.884 E3.0663
G1 X119.884 Y120.368 E3.1212
G1 X119.703 Y120.533 E3.1409
G1 X118.805 Y121.276 E3.2344
G1 X118.540 Y121.468 E3.2607
G1 X117.522 Y122.114 E3.3575
G1 X117.235 Y122.272 E3.3837
G1 X116.181 Y122.768 E3.4772
G1 X115.955 Y122.862 E3.4969
G1 X115.349 Y123.080 E3.5486
G1 X115.193 Y123.131 E3.5617
G1 X114.575 Y123.310 E3.6134
G1 X114.336 Y123.367 E3.6331
G1 X113.192 Y123.586 E3.7266
G1 X112.867 Y123.627 E3.7528
G1 X111.704 Y123.700 E3.8464
G1 X111.459 Y123.704 E3.8660
G1 X110.815 Y123.684 E3.9177
G1 X110.652 Y123.673 E3.9309
G1 X110.011 Y123.613 E3.9826
G1 X109.768 Y123.578 E4.0022
G1 X108.664 Y123.367 E4.0925
G1 X108.425 Y123.310 E4.1121
G1 X107.768 Y123.119 E4.1671
G1 X107.536 Y123.040 E4.1868
G1 X106.452 Y122.611 E4.2803
G1 X106.157 Y122.472 E4.3066
G1 X105.135 Y121.910 E4.4001
G1 X104.925 Y121.781 E4.4199
G1 X104.356 Y121.394 E4.4751
G1 X104.161 Y121.248 E4.4947
G1 X103.297 Y120.533 E4.5847
G1 X103.116 Y120.368 E4.6043
G1 X102.632 Y119.884 E4.6593
G1 X102.467 Y119.703 E4.6790
G1 X101.750 Y118.836 E4.7692
G1 X101.603 Y118.640 E4.7889
G1 X101.241 Y118.107 E4.8406
G1 X101.153 Y117.969 E4.8537
G1 X100.825 Y117.415 E4.9054
G1 X100.711 Y117.198 E4.9251
G1 X100.214 Y116.144 E5.0186
G1 X100.094 Y115.840 E5.0448
G1 X99.734 Y114.732 E5.1384
G1 X99.669 Y114.495 E5.1580
G1 X99.529 Y113.867 E5.2097
G1 X99.498 Y113.706 E5.2228
G1 X99.397 Y113.070 E5.2745
G1 X99.371 Y112.826 E5.2942
G1 X99.297 Y111.663 E5.3877
G1 X99.297 Y111.337 E5.4140
G1 X99.371 Y110.174 E5.5075
G1 X99.397 Y109.930 E5.5272
G1 X99.498 Y109.294 E5.5789
G1 X99.529 Y109.133 E5.5920
G1 X99.669 Y108.505 E5.6437
G1 X99.734 Y108.268 E5.6633
G1 X100.094 Y107.160 E5.7569
G1 X100.214 Y106.856 E5.7831
G1 X100.711 Y105.802 E5.8766
G1 X100.825 Y105.585 E5.8963
G1 X101.154 Y105.030 E5.9480
G1 X101.242 Y104.891 E5.9612
G1 X101.606 Y104.356 E6.0132
G1 X101.752 Y104.161 E6.0328
G1 X102.493 Y103.266 E6.1260
G1 X102.717 Y103.028 E6.1523
G92 E0.0000
G1 E-4.0000 F1500
G1 X103.283 Y103.594 F6000
G1 E0.0000 F1500
G92 E0.0000
G1 X104.125 Y102.802 E0.0928 F750
G1 X104.338 Y102.626 E0.1150
G1 X105.245 Y101.967 E0.2050
G1 X105.419 Y101.853 E0.2216
G1 X105.976 Y101.524 E0.2736
G1 X106.159 Y101.427 E0.2902
G1 X107.174 Y100.949 E0.3802
G1 X107.431 Y100.847 E0.4024
G1 X108.497 Y100.501 E0.4924
G1 X108.698 Y100.446 E0.5090
G1 X109.296 Y100.312 E0.5582
G1 X109.431 Y100.286 E0.5693
G1 X110.036 Y100.191 E0.6185
G1 X110.243 Y100.168 E0.6351
G1 X111.328 Y100.100 E0.7224
G1 X111.536 Y100.096 E0.7391
G1 X112.186 Y100.117 E0.7913
G1 X112.392 Y100.133 E0.8079
G1 X113.501 Y100.274 E0.8976
G1 X113.773 Y100.325 E0.9198
G1 X114.859 Y100.604 E1.0098
G1 X115.057 Y100.665 E1.0264
G1 X115.666 Y100.884 E1.0784
G1 X115.857 Y100.964 E1.0950
G1 X116.841 Y101.427 E1.1822
G1 X117.024 Y101.524 E1.1989
G1 X117.581 Y101.853 E1.2508
G1 X117.755 Y101.967 E1.2675
G1 X118.634 Y102.606 E1.3547
G1 X118.796 Y102.735 E1.3713
G1 X119.281 Y103.163 E1.4233
G1 X119.430 Y103.308 E1.4399
G1 X120.198 Y104.125 E1.5299
G1 X120.374 Y104.338 E1.5521
G1 X121.033 Y105.245 E1.6421
G1 X121.147 Y105.419 E1.6588
G1 X121.476 Y105.976 E1.7107
G1 X121.573 Y106.159 E1.7274
G1 X122.036 Y107.143 E1.8146
G1 X122.116 Y107.334 E1.8312
G1 X122.323 Y107.911 E1.8804
G1 X122.366 Y108.042 E1.8915
G1 X122.537 Y108.631 E1.9407
G1 X122.585 Y108.832 E1.9573
G1 X122.795 Y109.934 E2.0473
G1 X122.830 Y110.208 E2.0695
G1 X122.900 Y111.327 E2.1595
G1 X122.904 Y111.535 E2.1762
G1 X122.884 Y112.147 E2.2253
G1 X122.876 Y112.285 E2.2364
G1 X122.818 Y112.895 E2.2856
G1 X122.789 Y113.100 E2.3023
G1 X122.585 Y114.168 E2.3895
G1 X122.537 Y114.369 E2.4061
G1 X122.356 Y114.991 E2.4581
G1 X122.289 Y115.187 E2.4747
G1 X121.876 Y116.230 E2.5647
G1 X121.758 Y116.480 E2.5869
G1 X121.218 Y117.463 E2.6770
G1 X121.109 Y117.641 E2.6937
G1 X120.743 Y118.179 E2.7459
G1 X120.619 Y118.344 E2.7625
G1 X119.929 Y119.178 E2.8494
G1 X119.789 Y119.332 E2.8660
G1 X119.332 Y119.789 E2.9180
G1 X119.178 Y119.929 E2.9346
G1 X118.314 Y120.644 E3.0246
G1 X118.090 Y120.806 E3.0468
G1 X117.114 Y121.426 E3.1396
G1 X116.872 Y121.559 E3.1618
G1 X115.857 Y122.036 E3.2518
G1 X115.666 Y122.116 E3.2684
G1 X115.089 Y122.323 E3.3176
G1 X114.958 Y122.366 E3.3287
G1 X114.369 Y122.537 E3.3779
G1 X114.168 Y122.585 E3.3945
G1 X113.066 Y122.795 E3.4845
G1 X112.792 Y122.830 E3.5067
G1 X111.673 Y122.900 E3.5967
G1 X111.465 Y122.904 E3.6133
G1 X110.853 Y122.884 E3.6625
G1 X110.715 Y122.876 E3.6736
G1 X110.105 Y122.818 E3.7228
G1 X109.900 Y122.789 E3.7394
G1 X108.832 Y122.585 E3.8267
G1 X108.631 Y122.537 E3.8433
G1 X108.009 Y122.356 E3.8953
G1 X107.813 Y122.289 E3.9119
G1 X106.770 Y121.876 E4.0019
G1 X106.520 Y121.758 E4.0241
G1 X105.537 Y121.218 E4.1141
G1 X105.359 Y121.109 E4.1309
G1 X104.821 Y120.743 E4.1830
G1 X104.656 Y120.619 E4.1996
G1 X103.822 Y119.929 E4.2866
G1 X103.668 Y119.789 E4.3032
G1 X103.211 Y119.332 E4.3551
G1 X103.071 Y119.178 E4.3718
G1 X102.378 Y118.341 E4.4590
G1 X102.254 Y118.175 E4.4757
G1 X101.910 Y117.668 E4.5248
G1 X101.835 Y117.551 E4.5359
G1 X101.524 Y117.024 E4.5851
G1 X101.427 Y116.841 E4.6018
G1 X100.949 Y115.826 E4.6918
G1 X100.847 Y115.569 E4.7139
G1 X100.501 Y114.503 E4.8039
G1 X100.446 Y114.302 E4.8206
G1 X100.312 Y113.704 E4.8698
G1 X100.286 Y113.569 E4.8809
G1 X100.191 Y112.964 E4.9300
G1 X100.168 Y112.757 E4.9467
G1 X100.097 Y111.638 E5.0367
G1 X100.097 Y111.362 E5.0589
G1 X100.168 Y110.243 E5.1489
G1 X100.191 Y110.036 E5.1655
G1 X100.286 Y109.431 E5.2147
G1 X100.312 Y109.296 E5.2258
G1 X100.446 Y108.698 E5.2750
G1 X100.501 Y108.497 E5.2916
G1 X100.847 Y107.431 E5.3816
G1 X100.949 Y107.174 E5.4038
G1 X101.427 Y106.159 E5.4938
G1 X101.524 Y105.976 E5.5104
G1 X101.836 Y105.448 E5.5597
G1 X101.910 Y105.331 E5.5708
G1 X102.257 Y104.821 E5.6203
G1 X102.381 Y104.656 E5.6368
G1 X103.093 Y103.795 E5.7266
G1 X103.283 Y103.594 E5.7487
G92 E0.0000
G1 E-4.0000 F1500
; feature external single extrusion
; tool H0.640 W0.800
G1 X106.687 Y106.980 F6000
G1 E0.0000 F1500
G92 E0.0000
G1 X106.781 Y106.886 E0.0121 F488
; tool H0.640 W0.800
G1 X106.884 Y106.783 E0.0254
; tool H0.640 W0.800
G1 X106.978 Y106.689 E0.0376
G1 X107.079 Y106.599 E0.0499
; tool H0.640 W0.800
G1 X107.190 Y106.502 E0.0633
; tool H0.640 W0.800
G1 X107.291 Y106.413 E0.0756
G1 X107.397 Y106.330 E0.0879
; tool H0.640 W0.800
G1 X107.513 Y106.241 E0.1012
; tool H0.640 W0.800
G1 X107.619 Y106.158 E0.1135
G1 X107.730 Y106.083 E0.1257
; tool H0.640 W0.800
G1 X107.851 Y106.001 E0.1390
; tool H0.640 W0.800
G1 X107.962 Y105.925 E0.1513
G1 X108.078 Y105.857 E0.1635
; tool H0.640 W0.800
G1 X108.204 Y105.782 E0.1769
; tool H0.640 W0.800
G1 X108.319 Y105.714 E0.1891
G1 X108.439 Y105.653 E0.2013
; tool H0.640 W0.800
G1 X108.569 Y105.587 E0.2147
; tool H0.640 W0.800
G1 X108.689 Y105.526 E0.2269
G1 X108.812 Y105.473 E0.2391
; tool H0.640 W0.800
G1 X108.946 Y105.414 E0.2525
; tool H0.640 W0.800
G1 X109.069 Y105.361 E0.2647
G1 X109.196 Y105.316 E0.2770
; tool H0.640 W0.800
G1 X109.334 Y105.266 E0.2903
; tool H0.640 W0.800
G1 X109.460 Y105.221 E0.3025
; tool H0.640 W0.800
G1 X109.588 Y105.183 E0.3148
; tool H0.640 W0.799
G1 X109.729 Y105.142 E0.3281
; tool H0.640 W0.800
G1 X109.858 Y105.105 E0.3404
; tool H0.640 W0.800
G1 X109.989 Y105.076 E0.3526
; tool H0.640 W0.800
G1 X110.132 Y105.044 E0.3660
; tool H0.640 W0.800
G1 X110.263 Y105.014 E0.3782
G1 X110.395 Y104.993 E0.3904
; tool H0.640 W0.800
G1 X110.540 Y104.970 E0.4038
; tool H0.640 W0.800
G1 X110.672 Y104.949 E0.4160
G1 X110.805 Y104.937 E0.4281
; tool H0.640 W0.800
G1 X110.950 Y104.923 E0.4414
; tool H0.640 W0.800
G1 X111.083 Y104.911 E0.4536
G1 X111.218 Y104.906 E0.4659
; tool H0.640 W0.800
G1 X111.365 Y104.902 E0.4793
; tool H0.640 W0.800
G1 X111.500 Y104.897 E0.4916
G1 X111.635 Y104.902 E0.5039
; tool H0.640 W0.800
G1 X111.917 Y104.911 E0.5297
; tool H0.640 W0.800
